X: 3256
T: Behind The Haystack
R: jig
M: 6/8
K: Dmajor
|:d2e fdB|d2e fdB|AFE E3|AFE EFA|
d2e fdB|d2e fdB|AFD D3|AFD DFA:|
|:B3 BAF|ABc d2B|AFE E3|AFE EFA|
B3 BAF|ABc d2B|AFD D3|1 AFD DFA:|2 AFD D2f||
|:g3 f3|ede fdB|AFE E3|AFE E2f|
g3 faf|ede fdB|AFD D3|1 AFD D2f:|2 AFD DFA||

